X:1
T:Title
%%score { ( 1 3 ) | ( 2 4 ) }
L:1/8
M:3/4
K:Eb
V:1 treble nm="Grand Piano"
V:3 treble 
V:2 bass 
V:4 bass 
V:1
 z2 z2[Q:1/4=112] G2 | G4 G2 | A4 G2 | [B,G]2 F2 [G,_D=E]2 | [A,DF]4 [B,DF]2 | [B,EB]4 [B,=Ec]2 | %6
 [Fd]4 [=A,Ec]2 | [B,DB]6 |[M:1/4] B2 |[M:3/4] e4 d2 | c4 [C=EG]2 | [CGc]4 [CGB]2 | [CFA]4 [B,D]2 | %13
 [EB]2 [DA]2 [B,EG]2 | E2 z2 [B,DA]2 |[M:2/4] G4 |[M:1/4] GA |[M:3/4] B3 c B[FA] | [EG]4 [DF][EG] | %19
 [DA]3 [DB] [DA][EG] |[M:2/4] [DF]4 |[M:1/4] GA |[M:3/4] B3 B c[Ad] | [Ge]4 [EG][EA] | %24
 [EB]3 [CB] [DA][DF] |[M:2/4] E4 |] %26
V:2
 z2 z2 [E,B,E]2 | [E,B,E]4 [E,B,E]2 | [E,CE]4 [E,B,E]2 | z2 A,2 B,,2 | B,,4 A,,2 | G,,4 G,,2 | %6
 z2 G,2 F,,2 | B,,6 |[M:1/4] [A,B,D]2 |[M:3/4] [G,B,E]4 [G,B,E]2 | [A,E]4 C,2 | =E,4 E,2 | %12
 F,4 A,2 | G,2 F,2 E,2 | z2 C2 B,,2 |[M:2/4] [E,B,E]4 |[M:1/4] [E,B,E][F,B,D] | %17
[M:3/4] [G,B,E]3 [A,E] [G,B,E][D,B,] | [E,B,]4 [B,,B,][B,,B,] | [B,,F,]3 [B,,G,] [B,,F,][B,,B,] | %20
[M:2/4] [B,,B,]4 |[M:1/4] [E,B,E][F,B,D] |[M:3/4] [G,B,E]3 [G,B,E] [A,E][F,B,] | %23
 [E,B,]4 [E,B,][C,A,] | [B,,G,]3 [B,,G,] [B,,F,][B,,A,] |[M:2/4] [E,G,]4 |] %26
V:3
 x6 | x6 | x6 | D4 z2 | x6 | x6 | B,2 z2 z2 | x6 |[M:1/4] x2 |[M:3/4] x6 | x6 | x6 | x6 | B,4 z2 | %14
 [B,F]4 z2 |[M:2/4] x4 |[M:1/4] x2 |[M:3/4] x6 | x6 | x6 |[M:2/4] x4 |[M:1/4] x2 |[M:3/4] x6 | x6 | %24
 x6 |[M:2/4] x4 |] %26
V:4
 x6 | x6 | x6 | B,,4 z2 | x6 | x6 | F,,4 z2 | x6 |[M:1/4] x2 |[M:3/4] x6 | x6 | x6 | x6 | x6 | %14
 B,,4 z2 |[M:2/4] x4 |[M:1/4] x2 |[M:3/4] x6 | x6 | x6 |[M:2/4] x4 |[M:1/4] x2 |[M:3/4] x6 | x6 | %24
 x6 |[M:2/4] x4 |] %26

